outputs/icons/maps/light_rail_train_round.svg

<svg xmlns="http://www.w3.org/2000/svg" width="1200" height="1200" fill="none"><g clip-path="url(#a)"><path fill="#000" d="m650 250 37.5-75H850v-75H350v75h237.5L550 250c-156.5 4.5-300 36.5-300 175v425c0 75 55.5 136.5 127.5 147.5L318 1057c-16 16-5 43 17.5 43H390c6.5 0 13-2.5 17.5-7.5L500 1000h200l92.5 92.5c4.5 4.5 11 7.5 17.5 7.5h54.5c22.5 0 33.5-27 17.5-42.5L822.5 998c72-11.5 127.5-73 127.5-148V425c0-138.5-143.5-170.5-300-175m-50 675c-41.5 0-75-33.5-75-75s33.5-75 75-75 75 33.5 75 75-33.5 75-75 75m250-225H350V450h500z"/></g><defs><clipPath id="a"><path fill="#fff" d="M0 0h1200v1200H0z"/></clipPath></defs></svg>

<svg width="1200" height="1200" viewBox="0 0 1200 1200" fill="none" xmlns="http://www.w3.org/2000/svg"><g clip-path="url(#clip0_238_1719)"><path d="M650 250L687.5 175H850V100H350V175H587.5L550 250C393.5 254.5 250 286.5 250 425V850C250 925 305.5 986.5 377.5 997.5L318 1057C302 1073 313 1100 335.5 1100H390C396.5 1100 403 1097.5 407.5 1092.5L500 1000H700L792.5 1092.5C797 1097 803.5 1100 810 1100H864.5C887 1100 898 1073 882 1057.5L822.5 998C894.5 986.5 950 925 950 850V425C950 286.5 806.5 254.5 650 250ZM600 925C558.5 925 525 891.5 525 850C525 808.5 558.5 775 600 775C641.5 775 675 808.5 675 850C675 891.5 641.5 925 600 925ZM850 700H350V450H850V700Z" fill="#1D1E23"/></g><defs><clipPath id="clip0_238_1719"><path width="24" fill="white" d="M0 0H1200V1200H0V0z"/></clipPath></defs></svg>
